icons/solid/sun.svg

<svg width="24" height="24" viewBox="0 0 24 24" fill="none" xmlns="http://www.w3.org/2000/svg">
<path fill-rule="evenodd" clip-rule="evenodd" d="M13 3C13 2.44772 12.5523 2 12 2C11.4477 2 11 2.44772 11 3V4C11 4.55228 11.4477 5 12 5C12.5523 5 13 4.55228 13 4V3ZM5.70711 4.29289C5.31658 3.90237 4.68342 3.90237 4.29289 4.29289C3.90237 4.68342 3.90237 5.31658 4.29289 5.70711L5.29289 6.70711C5.68342 7.09763 6.31658 7.09763 6.70711 6.70711C7.09763 6.31658 7.09763 5.68342 6.70711 5.29289L5.70711 4.29289ZM19.7071 4.29289C19.3166 3.90237 18.6834 3.90237 18.2929 4.29289L17.2929 5.29289C16.9024 5.68342 16.9024 6.31658 17.2929 6.70711C17.6834 7.09763 18.3166 7.09763 18.7071 6.70711L19.7071 5.70711C20.0976 5.31658 20.0976 4.68342 19.7071 4.29289ZM12 7C9.23858 7 7 9.23858 7 12C7 14.7614 9.23858 17 12 17C14.7614 17 17 14.7614 17 12C17 9.23858 14.7614 7 12 7ZM3 11C2.44772 11 2 11.4477 2 12C2 12.5523 2.44772 13 3 13H4C4.55228 13 5 12.5523 5 12C5 11.4477 4.55228 11 4 11H3ZM20 11C19.4477 11 19 11.4477 19 12C19 12.5523 19.4477 13 20 13H21C21.5523 13 22 12.5523 22 12C22 11.4477 21.5523 11 21 11H20ZM6.70711 18.7071C7.09763 18.3166 7.09763 17.6834 6.70711 17.2929C6.31658 16.9024 5.68342 16.9024 5.29289 17.2929L4.29289 18.2929C3.90237 18.6834 3.90237 19.3166 4.29289 19.7071C4.68342 20.0976 5.31658 20.0976 5.70711 19.7071L6.70711 18.7071ZM18.7071 17.2929C18.3166 16.9024 17.6834 16.9024 17.2929 17.2929C16.9024 17.6834 16.9024 18.3166 17.2929 18.7071L18.2929 19.7071C18.6834 20.0976 19.3166 20.0976 19.7071 19.7071C20.0976 19.3166 20.0976 18.6834 19.7071 18.2929L18.7071 17.2929ZM13 20C13 19.4477 12.5523 19 12 19C11.4477 19 11 19.4477 11 20V21C11 21.5523 11.4477 22 12 22C12.5523 22 13 21.5523 13 21V20Z" fill="currentColor"/>
</svg>

<svg width="24" height="24" fill="none" xmlns="http://www.w3.org/2000/svg"><path fill-rule="evenodd" clip-rule="evenodd" d="M13 3a1 1 0 10-2 0v1a1 1 0 102 0V3zM5.707 4.293a1 1 0 00-1.414 1.414l1 1a1 1 0 001.414-1.414l-1-1zm14 0a1 1 0 00-1.414 0l-1 1a1 1 0 001.414 1.414l1-1a1 1 0 000-1.414zM12 7a5 5 0 100 10 5 5 0 000-10zm-9 4a1 1 0 100 2h1a1 1 0 100-2H3zm17 0a1 1 0 100 2h1a1 1 0 100-2h-1zM6.707 18.707a1 1 0 10-1.414-1.414l-1 1a1 1 0 101.414 1.414l1-1zm12-1.414a1 1 0 00-1.414 1.414l1 1a1 1 0 001.414-1.414l-1-1zM13 20a1 1 0 10-2 0v1a1 1 0 102 0v-1z" fill="currentColor"/></svg>
